static/images/mobile/copyright/wikipedia-wordmark-cr.svg

<svg width="120" height="21" viewBox="0 0 120 21" fill="none" xmlns="http://www.w3.org/2000/svg">
<path d="M0 10.3476C-3.35139e-06 9.80026 0.212734 9.34965 0.638211 8.99576C1.06368 8.64188 1.56552 8.46492 2.14373 8.46489C2.6783 8.46492 3.17469 8.64657 3.63289 9.00987C4.09109 9.37321 4.32019 9.81914 4.3202 10.3476C4.32019 10.8289 4.10745 11.2535 3.68199 11.6215C3.25651 11.9896 2.74376 12.1736 2.14373 12.1736C1.60916 12.1736 1.11823 11.999 0.67094 11.6499C0.223645 11.3007 -3.35139e-06 10.8666 0 10.3476ZM27.8522 18.1472L20.0464 4.17583L12.1915 18.1472H27.8522ZM20.0464 0.0283549L31.6651 20.1714H8.37856L20.0464 0.0283549ZM45.3293 5.20921C45.3293 4.78456 45.2339 4.36461 45.043 3.94938C44.852 3.53416 44.5875 3.16848 44.2493 2.85235C43.9111 2.53624 43.5211 2.28141 43.0792 2.08796C42.6374 1.89451 42.1655 1.7978 41.6637 1.79777C41.151 1.7978 40.6764 1.89451 40.24 2.08796C39.8036 2.28141 39.4245 2.53624 39.1027 2.85235C38.7809 3.16848 38.5245 3.53416 38.3336 3.94938C38.1426 4.36461 38.0472 4.78456 38.0472 5.20921C38.0472 5.65276 38.1426 6.0821 38.3336 6.4973C38.5245 6.91256 38.7809 7.28058 39.1027 7.60142C39.4245 7.92228 39.8036 8.17948 40.24 8.37293C40.6764 8.56638 41.151 8.6631 41.6637 8.66307C42.1655 8.6631 42.6374 8.56638 43.0792 8.37293C43.5211 8.17948 43.9111 7.92228 44.2493 7.60142C44.5875 7.28058 44.852 6.91256 45.043 6.4973C45.2339 6.0821 45.3293 5.65276 45.3293 5.20921ZM47.7349 5.20921C47.7349 5.9453 47.5794 6.62709 47.2685 7.25461C46.9576 7.88219 46.5212 8.439 45.9594 8.92499C45.3975 9.41098 44.7484 9.78843 44.012 10.0574C43.2756 10.3263 42.4928 10.4608 41.6637 10.4608C41.0637 10.4608 40.4909 10.383 39.9455 10.2272C39.4 10.0716 38.8818 9.85688 38.3908 9.58321V20.1714H35.6743V5.20921C35.6743 4.49202 35.8298 3.8149 36.1407 3.17787C36.4517 2.5409 36.8826 1.98649 37.4335 1.51462C37.9844 1.04281 38.6227 0.672398 39.3482 0.403427C40.0736 0.134515 40.8455 2.89901e-05 41.6637 0C42.4928 2.89901e-05 43.2756 0.134515 44.012 0.403427C44.7484 0.672398 45.3975 1.04281 45.9594 1.51462C46.5212 1.98649 46.9576 2.5409 47.2685 3.17787C47.5794 3.8149 47.7349 4.49202 47.7349 5.20921ZM72.4451 20.1714L63.412 4.13336L54.3952 20.1714H51.7769L63.412 0L75.0634 20.1714H72.4451ZM95.6007 9.76718C95.568 8.88014 95.4016 7.9813 95.1016 7.07064C94.8016 6.15997 94.3679 5.33187 93.8006 4.58633C93.2333 3.84085 92.5187 3.23216 91.6569 2.76029C90.795 2.28848 89.8077 2.05255 88.6949 2.05252C87.5276 2.05255 86.513 2.28379 85.6512 2.74618C84.7893 3.2086 84.0747 3.8078 83.5074 4.54386C82.9401 5.27998 82.5119 6.10808 82.2228 7.02817C81.9337 7.94829 81.7892 8.87072 81.7892 9.79554V20.1714H79.0727V9.96536C79.0727 8.41772 79.2636 7.06591 79.6454 5.9099C80.0273 4.75389 80.6873 3.69932 81.6255 2.74618C82.6292 1.80249 83.7174 1.10888 84.8902 0.665301C86.063 0.22181 87.3312 2.89901e-05 88.6949 0C89.3822 2.89901e-05 90.0232 0.0471905 90.6178 0.141553C91.2123 0.235945 91.7878 0.372783 92.3442 0.552058C93.4351 0.891823 94.4497 1.55715 95.388 2.54801C96.348 3.58608 97.0735 4.70432 97.5644 5.90278C98.0553 7.10129 98.3008 8.41776 98.3008 9.85216V20.1714H95.6007V9.76718ZM102.31 0.452971H105.027V9.10188H114.076H120V11.1545L106.859 20.1714H102.817L115.942 11.1545H102.31V0.452971Z" fill="black"/>
</svg>

<svg xmlns="http://www.w3.org/2000/svg" width="120" height="21" fill="none"><path fill="#000" d="M0 10.348C0 9.8.213 9.35.638 8.996c.426-.354.928-.531 1.506-.531.534 0 1.03.182 1.489.545.458.363.687.81.687 1.338 0 .48-.213.905-.638 1.273-.425.369-.938.553-1.538.553A2.34 2.34 0 0 1 .67 11.65C.224 11.3 0 10.867 0 10.348Zm27.852 7.8L20.046 4.175l-7.854 13.971h15.66ZM20.046.027l11.62 20.143H8.378L20.046.028ZM45.33 5.21a2.99 2.99 0 0 0-.286-1.26 3.48 3.48 0 0 0-.794-1.097 4.114 4.114 0 0 0-1.17-.764 3.49 3.49 0 0 0-1.415-.29c-.513 0-.988.097-1.424.29a3.807 3.807 0 0 0-1.137.764 3.678 3.678 0 0 0-.77 1.097 2.989 2.989 0 0 0-.286 1.26c0 .444.096.873.287 1.288a3.74 3.74 0 0 0 1.906 1.876c.436.193.911.29 1.424.29a3.49 3.49 0 0 0 1.415-.29c.442-.194.832-.45 1.17-.772.338-.32.603-.688.794-1.104a3.05 3.05 0 0 0 .286-1.288Zm2.406 0c0 .736-.156 1.418-.466 2.046a5.323 5.323 0 0 1-1.31 1.67 6.194 6.194 0 0 1-1.947 1.132 6.793 6.793 0 0 1-2.348.404c-.6 0-1.173-.078-1.718-.234a7.289 7.289 0 0 1-1.555-.644v10.588h-2.717V5.21c0-.717.156-1.394.467-2.031a5.142 5.142 0 0 1 1.293-1.663A6.257 6.257 0 0 1 39.348.403 6.609 6.609 0 0 1 41.664 0c.829 0 1.612.135 2.348.403.736.27 1.386.64 1.947 1.112a5.046 5.046 0 0 1 1.31 1.663c.31.637.466 1.314.466 2.031Zm24.71 14.962L63.412 4.133l-9.017 16.038h-2.618L63.412 0l11.651 20.171h-2.618ZM95.601 9.767a9.74 9.74 0 0 0-.5-2.696 8.423 8.423 0 0 0-1.3-2.485 6.694 6.694 0 0 0-2.144-1.826c-.862-.472-1.85-.707-2.962-.707-1.167 0-2.182.23-3.044.693a6.613 6.613 0 0 0-2.144 1.798 7.924 7.924 0 0 0-1.284 2.484 9.187 9.187 0 0 0-.434 2.768V20.17h-2.716V9.965c0-1.547.19-2.9.572-4.055.382-1.156 1.042-2.21 1.98-3.164 1.004-.944 2.092-1.637 3.265-2.08C86.063.221 87.331 0 88.695 0c.687 0 1.328.047 1.923.142.594.094 1.17.23 1.726.41 1.091.34 2.106 1.005 3.044 1.996.96 1.038 1.685 2.156 2.176 3.355.491 1.198.737 2.515.737 3.95V20.17h-2.7V9.767ZM102.31.453h2.717v8.649H120v2.053l-13.141 9.016h-4.042l13.125-9.016H102.31V.453Z"/></svg>
